packages/core/src/browser/icons/loading-light.svg

<svg fill="none" height="16" viewBox="0 0 16 16" width="16" xmlns="http://www.w3.org/2000/svg"><path d="m8 .75c.17188 0 .33333.033854.48438.101562.15104.0625.28385.151038.39843.265628.11459.11458.20313.24739.26563.39843.06771.15105.10156.3125.10156.48438s-.03385.33333-.10156.48438c-.0625.15104-.15104.28385-.26563.39843-.11458.11459-.24739.20573-.39843.27344-.15105.0625-.3125.09375-.48438.09375s-.33333-.03125-.48438-.09375c-.15104-.06771-.28385-.15885-.39843-.27344-.11459-.11458-.20573-.24739-.27344-.39843-.0625-.15105-.09375-.3125-.09375-.48438s.03125-.33333.09375-.48438c.06771-.15104.15885-.28385.27344-.39843.11458-.11459.24739-.203128.39843-.265628.15105-.067708.3125-.101562.48438-.101562zm-5.36719 3.00781c0-.15625.02865-.30208.08594-.4375.05729-.13541.13542-.2526.23437-.35156.10417-.10417.22396-.1849.35938-.24219.14062-.0625.28906-.09375.44531-.09375s.30209.03125.4375.09375c.13542.05729.25261.13802.35157.24219.10416.09896.18489.21615.24218.35156.0625.13542.09375.28125.09375.4375s-.03125.30469-.09375.44531c-.05729.13542-.13802.25521-.24218.35938-.09896.09896-.21615.17708-.35157.23438-.13541.05729-.28125.08593-.4375.08593s-.30469-.02864-.44531-.08593c-.13542-.0573-.25521-.13542-.35938-.23438-.09895-.10417-.17708-.22396-.23437-.35938-.05729-.14062-.08594-.28906-.08594-.44531zm-.63281 3.24219c.14062 0 .27083.02604.39062.07812.1198.05209.22396.125.3125.21876.09376.08854.16667.1927.21876.3125.05208.11979.07812.25.07812.39062s-.02604.27083-.07812.39062c-.05209.1198-.125.22657-.21876.32032-.08854.08854-.1927.15885-.3125.21094-.11979.05208-.25.07812-.39062.07812s-.27083-.02604-.39062-.07812c-.1198-.05209-.22657-.1224-.32032-.21094-.08854-.09375-.15885-.20052-.21094-.32032-.05208-.11979-.07812-.25-.07812-.39062s.02604-.27083.07812-.39062c.05209-.1198.1224-.22396.21094-.3125.09375-.09376.20052-.16667.32032-.21876.11979-.05208.25-.07812.39062-.07812zm.88281 5.2422c0-.1198.02344-.2318.07031-.336.04688-.1093.10938-.2031.1875-.2812.07813-.0781.16928-.1406.27344-.1875.10938-.0469.22396-.0703.34375-.0703s.23177.0234.33594.0703c.10937.0469.20313.1094.28125.1875s.14062.1719.1875.2812c.04688.1042.07031.2162.07031.336s-.02343.2344-.07031.3437c-.04688.1042-.10938.1953-.1875.2735-.07812.0781-.17188.1406-.28125.1875-.10417.0469-.21615.0703-.33594.0703s-.23437-.0234-.34375-.0703c-.10416-.0469-.19531-.1094-.27344-.1875-.07812-.0782-.14062-.1693-.1875-.2735-.04687-.1093-.07031-.2239-.07031-.3437zm5.11719 1.0078c.20833 0 .38542.0729.53125.2188.14583.1458.21875.3229.21875.5312s-.07292.3854-.21875.5312c-.14583.1459-.32292.2188-.53125.2188s-.38542-.0729-.53125-.2188c-.14583-.1458-.21875-.3229-.21875-.5312s.07292-.3854.21875-.5312c.14583-.1459.32292-.2188.53125-.2188zm3.6172-1.0078c0-.1771.0599-.3255.1797-.4453s.2682-.1797.4453-.1797.3255.0599.4453.1797.1797.2682.1797.4453-.0599.3255-.1797.4453-.2682.1797-.4453.1797-.3255-.0599-.4453-.1797-.1797-.2682-.1797-.4453zm2.3828-4.7422c.1354 0 .2526.04948.3516.14844.0989.09896.1484.21614.1484.35156s-.0495.2526-.1484.35156c-.099.09896-.2162.14844-.3516.14844s-.2526-.04948-.3516-.14844c-.0989-.09896-.1484-.21614-.1484-.35156s.0495-.2526.1484-.35156c.099-.09896.2162-.14844.3516-.14844zm-1.7578-5.11719c.1875 0 .3646.03646.5312.10938.1667.07291.3125.17187.4375.29687s.224.27084.2969.4375c.0729.16667.1094.34375.1094.53125s-.0365.36459-.1094.53125c-.0729.16667-.1719.3125-.2969.4375s-.2708.22396-.4375.29688c-.1666.07291-.3437.10937-.5312.10937s-.3646-.03646-.5313-.10937c-.1666-.07292-.3125-.17188-.4375-.29688s-.2239-.27083-.2968-.4375c-.073-.16666-.1094-.34375-.1094-.53125s.0364-.36458.1094-.53125c.0729-.16666.1718-.3125.2968-.4375s.2709-.22396.4375-.29687c.1667-.07292.3438-.10938.5313-.10938z" fill="#424242"/></svg>

<!--Copyright (c) Microsoft Corporation. All rights reserved.-->
<!--Copyright (C) 2020 TypeFox and others.-->
<!--Copied from https://raw.githubusercontent.com/microsoft/vscode-icons/9c90ce81b1f3c309000b80da0763aa09975a85f0/icons/light/loading.svg -->
<svg width="16" height="16" viewBox="0 0 16 16" fill="none" xmlns="http://www.w3.org/2000/svg">
    <path d="M8 0.75C8.17188 0.75 8.33333 0.783854 8.48438 0.851562C8.63542 0.914062 8.76823 1.0026 8.88281 1.11719C8.9974 1.23177 9.08594 1.36458 9.14844 1.51562C9.21615 1.66667 9.25 1.82812 9.25 2C9.25 2.17188 9.21615 2.33333 9.14844 2.48438C9.08594 2.63542 8.9974 2.76823 8.88281 2.88281C8.76823 2.9974 8.63542 3.08854 8.48438 3.15625C8.33333 3.21875 8.17188 3.25 8 3.25C7.82812 3.25 7.66667 3.21875 7.51562 3.15625C7.36458 3.08854 7.23177 2.9974 7.11719 2.88281C7.0026 2.76823 6.91146 2.63542 6.84375 2.48438C6.78125 2.33333 6.75 2.17188 6.75 2C6.75 1.82812 6.78125 1.66667 6.84375 1.51562C6.91146 1.36458 7.0026 1.23177 7.11719 1.11719C7.23177 1.0026 7.36458 0.914062 7.51562 0.851562C7.66667 0.783854 7.82812 0.75 8 0.75ZM2.63281 3.75781C2.63281 3.60156 2.66146 3.45573 2.71875 3.32031C2.77604 3.1849 2.85417 3.06771 2.95312 2.96875C3.05729 2.86458 3.17708 2.78385 3.3125 2.72656C3.45312 2.66406 3.60156 2.63281 3.75781 2.63281C3.91406 2.63281 4.0599 2.66406 4.19531 2.72656C4.33073 2.78385 4.44792 2.86458 4.54688 2.96875C4.65104 3.06771 4.73177 3.1849 4.78906 3.32031C4.85156 3.45573 4.88281 3.60156 4.88281 3.75781C4.88281 3.91406 4.85156 4.0625 4.78906 4.20312C4.73177 4.33854 4.65104 4.45833 4.54688 4.5625C4.44792 4.66146 4.33073 4.73958 4.19531 4.79688C4.0599 4.85417 3.91406 4.88281 3.75781 4.88281C3.60156 4.88281 3.45312 4.85417 3.3125 4.79688C3.17708 4.73958 3.05729 4.66146 2.95312 4.5625C2.85417 4.45833 2.77604 4.33854 2.71875 4.20312C2.66146 4.0625 2.63281 3.91406 2.63281 3.75781ZM2 7C2.14062 7 2.27083 7.02604 2.39062 7.07812C2.51042 7.13021 2.61458 7.20312 2.70312 7.29688C2.79688 7.38542 2.86979 7.48958 2.92188 7.60938C2.97396 7.72917 3 7.85938 3 8C3 8.14062 2.97396 8.27083 2.92188 8.39062C2.86979 8.51042 2.79688 8.61719 2.70312 8.71094C2.61458 8.79948 2.51042 8.86979 2.39062 8.92188C2.27083 8.97396 2.14062 9 2 9C1.85938 9 1.72917 8.97396 1.60938 8.92188C1.48958 8.86979 1.38281 8.79948 1.28906 8.71094C1.20052 8.61719 1.13021 8.51042 1.07812 8.39062C1.02604 8.27083 1 8.14062 1 8C1 7.85938 1.02604 7.72917 1.07812 7.60938C1.13021 7.48958 1.20052 7.38542 1.28906 7.29688C1.38281 7.20312 1.48958 7.13021 1.60938 7.07812C1.72917 7.02604 1.85938 7 2 7ZM2.88281 12.2422C2.88281 12.1224 2.90625 12.0104 2.95312 11.9062C3 11.7969 3.0625 11.7031 3.14062 11.625C3.21875 11.5469 3.3099 11.4844 3.41406 11.4375C3.52344 11.3906 3.63802 11.3672 3.75781 11.3672C3.8776 11.3672 3.98958 11.3906 4.09375 11.4375C4.20312 11.4844 4.29688 11.5469 4.375 11.625C4.45312 11.7031 4.51562 11.7969 4.5625 11.9062C4.60938 12.0104 4.63281 12.1224 4.63281 12.2422C4.63281 12.362 4.60938 12.4766 4.5625 12.5859C4.51562 12.6901 4.45312 12.7812 4.375 12.8594C4.29688 12.9375 4.20312 13 4.09375 13.0469C3.98958 13.0938 3.8776 13.1172 3.75781 13.1172C3.63802 13.1172 3.52344 13.0938 3.41406 13.0469C3.3099 13 3.21875 12.9375 3.14062 12.8594C3.0625 12.7812 3 12.6901 2.95312 12.5859C2.90625 12.4766 2.88281 12.362 2.88281 12.2422ZM8 13.25C8.20833 13.25 8.38542 13.3229 8.53125 13.4688C8.67708 13.6146 8.75 13.7917 8.75 14C8.75 14.2083 8.67708 14.3854 8.53125 14.5312C8.38542 14.6771 8.20833 14.75 8 14.75C7.79167 14.75 7.61458 14.6771 7.46875 14.5312C7.32292 14.3854 7.25 14.2083 7.25 14C7.25 13.7917 7.32292 13.6146 7.46875 13.4688C7.61458 13.3229 7.79167 13.25 8 13.25ZM11.6172 12.2422C11.6172 12.0651 11.6771 11.9167 11.7969 11.7969C11.9167 11.6771 12.0651 11.6172 12.2422 11.6172C12.4193 11.6172 12.5677 11.6771 12.6875 11.7969C12.8073 11.9167 12.8672 12.0651 12.8672 12.2422C12.8672 12.4193 12.8073 12.5677 12.6875 12.6875C12.5677 12.8073 12.4193 12.8672 12.2422 12.8672C12.0651 12.8672 11.9167 12.8073 11.7969 12.6875C11.6771 12.5677 11.6172 12.4193 11.6172 12.2422ZM14 7.5C14.1354 7.5 14.2526 7.54948 14.3516 7.64844C14.4505 7.7474 14.5 7.86458 14.5 8C14.5 8.13542 14.4505 8.2526 14.3516 8.35156C14.2526 8.45052 14.1354 8.5 14 8.5C13.8646 8.5 13.7474 8.45052 13.6484 8.35156C13.5495 8.2526 13.5 8.13542 13.5 8C13.5 7.86458 13.5495 7.7474 13.6484 7.64844C13.7474 7.54948 13.8646 7.5 14 7.5ZM12.2422 2.38281C12.4297 2.38281 12.6068 2.41927 12.7734 2.49219C12.9401 2.5651 13.0859 2.66406 13.2109 2.78906C13.3359 2.91406 13.4349 3.0599 13.5078 3.22656C13.5807 3.39323 13.6172 3.57031 13.6172 3.75781C13.6172 3.94531 13.5807 4.1224 13.5078 4.28906C13.4349 4.45573 13.3359 4.60156 13.2109 4.72656C13.0859 4.85156 12.9401 4.95052 12.7734 5.02344C12.6068 5.09635 12.4297 5.13281 12.2422 5.13281C12.0547 5.13281 11.8776 5.09635 11.7109 5.02344C11.5443 4.95052 11.3984 4.85156 11.2734 4.72656C11.1484 4.60156 11.0495 4.45573 10.9766 4.28906C10.9036 4.1224 10.8672 3.94531 10.8672 3.75781C10.8672 3.57031 10.9036 3.39323 10.9766 3.22656C11.0495 3.0599 11.1484 2.91406 11.2734 2.78906C11.3984 2.66406 11.5443 2.5651 11.7109 2.49219C11.8776 2.41927 12.0547 2.38281 12.2422 2.38281Z" fill="#424242" />
</svg>
